relation-only-one-to-zero-or-one.svg

<svg fill="currentColor" viewBox="0 0 24 24"><path d="M21 15v-2h-2v2h-.21a2.5 2.5 0 0 0-4.58 0H13V7H8V5H6v2H5V5H3v2H2v2h1v2h2V9h1v2h2V9h3v8h3.21a2.5 2.5 0 0 0 4.58 0H19v2h2v-2h1v-2m-5.5 2a1 1 0 1 1 1-1 1 1 0 0 1-1 1"/></svg>

<svg  viewBox="0 0 24 24" fill="currentColor"><path  d="M21 15V13H19V15H18.79A2.5 2.5 0 0 0 14.21 15H13V7H8V5H6V7H5V5H3V7H2V9H3V11H5V9H6V11H8V9H11V17H14.21A2.5 2.5 0 0 0 18.79 17H19V19H21V17H22V15M16.5 17A1 1 0 1 1 17.5 16A1 1 0 0 1 16.5 17Z"/></svg>
